assets/images/accordion-toggle.svg

<svg fill="none" height="12" viewBox="0 0 12 12" width="12" xmlns="http://www.w3.org/2000/svg"><path d="m10.2426 11.6549-4.2426-4.24268-4.24264 4.24268-1.414213-1.4143 4.242643-4.24259-4.242644-4.24265 1.414214-1.414209 4.24264 4.242639 4.2426-4.242639 1.4143 1.414209-4.24269 4.24265 4.24269 4.24259z" fill="#3f261a"/></svg>

<svg width="12" height="12" viewBox="0 0 12 12" fill="none" xmlns="http://www.w3.org/2000/svg">
    <path d="M10.2426 11.6549L6 7.41222L1.75736 11.6549L0.343147 10.2406L4.58579 5.99801L0.343146 1.75536L1.75736 0.341151L6 4.58379L10.2426 0.341151L11.6569 1.75536L7.41421 5.99801L11.6569 10.2406L10.2426 11.6549Z" fill="#3F261A"/>
</svg>
